X: 27266
T: Miss Susan Cooper
R: reel
M: 4/4
K: Dmajor
ABc|:dfed BedB|BAFA DAFA|ABde fa^ga|g2fg egfe|
dfed B2dB|A2FA DAFA|ABde fagf|eAce d2dc:|
|:Bcde fB(3BBB|def^g a2gf|e2ce Aece|g2fg egfe|
dfed B2dB|BAFA DAFA|ABde fagf|1 eAce d2dc:|2 eAce dABc||

